src/assets/filled/CloudSunny.svg

<svg width="24" height="24" viewBox="0 0 24 24"  xmlns="http://www.w3.org/2000/svg">
<path d="M20.61 10.83C19.84 9.90996 18.85 9.30996 17.7 9.04996C17.44 7.88996 16.99 6.88996 16.33 6.05996C16.31 6.02996 16.29 5.99996 16.27 5.97996C14.07 3.31996 10.47 3.32996 8.04001 4.70996C5.96001 5.89996 4.19001 8.40996 5.12001 11.99C2.99001 12.51 2.01001 14.37 2.01001 16.05C2.01001 17.93 3.24001 20.04 5.98001 20.24H16.32C16.33 20.24 16.35 20.24 16.36 20.24C17.78 20.24 19.14 19.71 20.19 18.75C22.7 16.53 22.37 12.91 20.61 10.83Z" />
<path d="M21.76 8.74001C21.76 9.08001 21.72 9.41001 21.62 9.73001C20.89 8.88001 19.96 8.25001 18.93 7.86001C18.61 6.86001 18.1499 5.97001 17.5499 5.19001C17.5199 5.15001 17.49 5.11001 17.45 5.06001C17.64 5.02001 17.84 5.01001 18.03 5.01001C20.09 5.01001 21.76 6.68001 21.76 8.74001Z" />
</svg>

<?xml version="1.0" encoding="UTF-8"?>
<svg width="24" height="24" viewBox="0 0 24 24" xmlns="http://www.w3.org/2000/svg">
 <path d="m20.61 10.83c-0.77-0.92004-1.76-1.52-2.91-1.78-0.26-1.16-0.71-2.16-1.37-2.99-0.02-0.03-0.04-0.06-0.06-0.08-2.2-2.66-5.8-2.65-8.23-1.27-2.08 1.19-3.85 3.7-2.92 7.28-2.13 0.52-3.11 2.38-3.11 4.06 0 1.88 1.23 3.99 3.97 4.19h10.34 0.04c1.42 0 2.78-0.53 3.83-1.49 2.51-2.22 2.18-5.84 0.42-7.92z"/>
 <path d="m21.76 8.74c0 0.34-0.04 0.67-0.14 0.99-0.73-0.85-1.66-1.48-2.69-1.87-0.32-1-0.7801-1.89-1.3801-2.67-0.03-0.04-0.0599-0.08-0.0999-0.13 0.19-0.04 0.39-0.05 0.58-0.05 2.06 0 3.73 1.67 3.73 3.73z"/>
</svg>
